X:1
T:Ira D. Sankey
T:Julia Sterling
T:I came a Wanderer
%%score { ( 1 2 ) | ( 3 4 ) }
L:1/8
M:3/4
K:Ab
V:1 treble 
V:2 treble 
V:3 bass 
V:4 bass 
V:1
 A2 | cc c2 A2 | FA E2 A2 | B3 B AB | c4 A2 | cc c2 A2 | FA E2 A2 | B3 A Bc | A4 (Ac) | ee e2 c2 | %10
 AF A2 (Ac) | ee e2 c2 | B4 A2 | cc c2 A2 | FA E2 A2 | B3 A Bc | A4 |] %17
V:2
 C2 | EE E2 E2 | DD C2 E2 | G3 G FG | A4 E2 | EE E2 E2 | DD C2 E2 | G3 A GG | A4 (CE) | AG A2 E2 | %10
 FD C2 (CE) | AG A2 E2 | E4 C2 | EE E2 E2 | DD C2 E2 | D3 C DE | C4 |] %17
V:3
 A,2 | A,A, A,2 A,2 | A,A, A,2 C2 | D3 D CE | E4 C2 | A,A, A,2 A,2 | A,A, A,2 C2 | D3 C DE | %8
 C4 A,2 | CB, C2 A,2 | A,A, A,2 A,2 | CB, C2 A,2 | G,4 A,2 | A,A, A,2 A,2 | A,A, A,2 A,2 | %15
 G,3 A, G,G, | A,4 |] %17
V:4
 A,,2 | A,,A,, A,,2 C,2 | D,F, A,2 A,2 | E,3 E, F,E, | A,4 A,2 | A,A, A,2 C,2 | D,F, A,2 A,2 | %7
 E,3 E, E,E, | A,4 A,2 | A,E, A,2 A,,2 | D,D, A,,2 A,2 | A,E, A,,2 C,2 | E,4 A,,2 | %13
 A,,A,, A,,2 C,2 | D,F, A,2 C,2 | E,3 E, E,E, | A,,4 |] %17

